public/svg/wallet_as_service/wallet.svg

<svg width="19" height="15" viewBox="0 0 19 15" fill="none" xmlns="http://www.w3.org/2000/svg">
<path d="M15.75 5.33333V3.41667C15.75 2.48325 15.75 2.01654 15.5683 1.66002C15.4086 1.34641 15.1536 1.09145 14.84 0.931658C14.4835 0.750002 14.0167 0.750002 13.0833 0.75H3.41667C2.48325 0.75 2.01654 0.75 1.66002 0.931656C1.34641 1.09144 1.09145 1.34641 0.931656 1.66002C0.75 2.01654 0.75 2.48325 0.75 3.41667V11.4167C0.75 12.3501 0.75 12.8168 0.931656 13.1733C1.09144 13.4869 1.34641 13.7419 1.66002 13.9017C2.01654 14.0833 2.48325 14.0833 3.41667 14.0833L13.0833 14.0833C14.0168 14.0833 14.4835 14.0833 14.84 13.9017C15.1536 13.7419 15.4086 13.4869 15.5683 13.1733C15.75 12.8168 15.75 12.3501 15.75 11.4167V9.5M11.5833 7.41667C11.5833 7.02945 11.5833 6.83585 11.6154 6.67485C11.7469 6.0137 12.2637 5.49687 12.9248 5.36536C13.0858 5.33333 13.2795 5.33333 13.6667 5.33333H15.3333C15.7205 5.33333 15.9142 5.33333 16.0752 5.36536C16.7363 5.49687 17.2531 6.0137 17.3846 6.67485C17.4167 6.83585 17.4167 7.02945 17.4167 7.41667C17.4167 7.80388 17.4167 7.99749 17.3846 8.15848C17.2531 8.81963 16.7363 9.33646 16.0752 9.46798C15.9142 9.5 15.7205 9.5 15.3333 9.5H13.6667C13.2795 9.5 13.0858 9.5 12.9248 9.46797C12.2637 9.33646 11.7469 8.81963 11.6154 8.15848C11.5833 7.99748 11.5833 7.80388 11.5833 7.41667Z" stroke="#414651" stroke-width="1.5" stroke-linecap="round" stroke-linejoin="round"/>
</svg>

<svg xmlns="http://www.w3.org/2000/svg" width="19" height="15" fill="none" viewBox="0 0 19 15"><path stroke="#414651" stroke-linecap="round" stroke-linejoin="round" stroke-width="1.5" d="M15.75 5.333V3.417c0-.934 0-1.4-.182-1.757a1.67 1.67 0 0 0-.728-.728C14.483.75 14.017.75 13.083.75H3.417c-.934 0-1.4 0-1.757.182-.314.16-.569.414-.728.728C.75 2.017.75 2.483.75 3.417v8c0 .933 0 1.4.182 1.756.16.314.414.569.728.729.357.181.823.181 1.757.181h9.666c.934 0 1.4 0 1.757-.181a1.66 1.66 0 0 0 .728-.729c.182-.356.182-.823.182-1.756V9.5m-4.167-2.083c0-.388 0-.581.032-.742a1.67 1.67 0 0 1 1.31-1.31c.16-.032.354-.032.742-.032h1.666c.387 0 .581 0 .742.032a1.67 1.67 0 0 1 1.31 1.31c.032.16.032.354.032.742 0 .387 0 .58-.032.741a1.67 1.67 0 0 1-1.31 1.31c-.16.032-.354.032-.742.032h-1.666c-.387 0-.581 0-.742-.032a1.67 1.67 0 0 1-1.31-1.31c-.032-.16-.032-.354-.032-.741"/></svg>
